app/images/social/github-box.svg

<svg xmlns="http://www.w3.org/2000/svg" width="24" height="24" viewBox="0 0 24 24"><path style="fil:#000" d="M5 3h14a2 2 0 0 1 2 2v14a2 2 0 0 1-2 2h-4.44c-.32-.07-.33-.68-.33-.89l.01-2.47c0-.84-.29-1.39-.61-1.67 2.01-.22 4.11-.97 4.11-4.44 0-.98-.35-1.79-.92-2.42.09-.22.4-1.14-.09-2.38 0 0-.76-.23-2.48.93-.72-.2-1.48-.3-2.25-.31-.76.01-1.54.11-2.25.31-1.72-1.16-2.48-.93-2.48-.93-.49 1.24-.18 2.16-.09 2.38-.57.63-.92 1.44-.92 2.42 0 3.47 2.1 4.22 4.1 4.47-.26.2-.49.6-.57 1.18-.52.23-1.82.63-2.62-.75 0 0-.48-.86-1.38-.93 0 0-.88 0-.06.55 0 0 .59.28 1 1.32 0 0 .52 1.75 3.03 1.21l.01 1.53c0 .21-.02.82-.34.89H5a2 2 0 0 1-2-2V5a2 2 0 0 1 2-2z"/></svg>

<?xml version="1.0" encoding="UTF-8"?><!DOCTYPE svg PUBLIC "-//W3C//DTD SVG 1.1//EN"
  "http://www.w3.org/Graphics/SVG/1.1/DTD/svg11.dtd">
<svg xmlns="http://www.w3.org/2000/svg"
     version="1.1" width="24" height="24" viewBox="0 0 24 24">
  <path style="fil:#000"
        d="M5,3H19A2,2 0 0,1 21,5V19A2,2 0 0,1 19,21H14.56C14.24,20.93 14.23,20.32 14.23,20.11L14.24,17.64C14.24,16.8 13.95,16.25 13.63,15.97C15.64,15.75 17.74,15 17.74,11.53C17.74,10.55 17.39,9.74 16.82,9.11C16.91,8.89 17.22,7.97 16.73,6.73C16.73,6.73 15.97,6.5 14.25,7.66C13.53,7.46 12.77,7.36 12,7.35C11.24,7.36 10.46,7.46 9.75,7.66C8.03,6.5 7.27,6.73 7.27,6.73C6.78,7.97 7.09,8.89 7.18,9.11C6.61,9.74 6.26,10.55 6.26,11.53C6.26,15 8.36,15.75 10.36,16C10.1,16.2 9.87,16.6 9.79,17.18C9.27,17.41 7.97,17.81 7.17,16.43C7.17,16.43 6.69,15.57 5.79,15.5C5.79,15.5 4.91,15.5 5.73,16.05C5.73,16.05 6.32,16.33 6.73,17.37C6.73,17.37 7.25,19.12 9.76,18.58L9.77,20.11C9.77,20.32 9.75,20.93 9.43,21H5A2,2 0 0,1 3,19V5A2,2 0 0,1 5,3Z"/>
</svg>
